app/assets/v2/images/mission/want/falcon_1.svg

<svg id="Layer_2" data-name="Layer 2" xmlns="http://www.w3.org/2000/svg" viewBox="0 0 562.04 940.49"><defs><style>.cls-1{fill:#ffd107}.cls-2,.cls-4{fill:none}.cls-2,.cls-3,.cls-6{stroke:#180041}.cls-2,.cls-3,.cls-4,.cls-6{stroke-linecap:round;stroke-linejoin:round;stroke-width:2.41px}.cls-10,.cls-3{fill:#180041}.cls-4{stroke:#fff}.cls-6,.cls-8{fill:#00ed92}</style></defs><circle class="cls-1" cx="413.93" cy="83.55" r="24.4"/><path class="cls-2" d="M209.82 545.83V764.7"/><path class="cls-3" d="M228.27 834.69s1.9-1.12 2.76-8.87 6.81-60.74 6.81-60.74.17-13.19 2.76-13.19 5.17 10.52 5.25 12.5S248 847.1 248 847.1l-2.24 1.38v5.08l-1.28 1.28h-33.12l-1.28-1.28v-5.08l-2.24-1.38s2.07-80.73 2.15-82.71 2.68-12.5 5.26-12.5 2.75 13.19 2.75 13.19 5.94 53 6.8 60.74 2.76 8.87 2.76 8.87z"/><path class="cls-4" d="M248.13 857.5s-2-26.4-6.85-26.4a8.71 8.71 0 0 0-7 3s-2 7.12-2.65 11.49a3.74 3.74 0 0 1-7.42 0 117.2 117.2 0 0 0-2.64-11.49 8.72 8.72 0 0 0-7-3c-4.82 0-7.24 25.59-7.24 25.59"/><path class="cls-2" d="M223.44 865.88l-.1-3.82a8.15 8.15 0 0 0-4.34-7.12h-.24a8.15 8.15 0 0 0-4.34 7.12l-.1 3.82zm-9.17-3.85h8.9"/><path class="cls-2" d="M232.47 865.88l-.11-3.82a8.15 8.15 0 0 0-4.33-7.12h-.25a8.15 8.15 0 0 0-4.33 7.12l-.11 3.82zm-9.18-3.85h8.91"/><path class="cls-2" d="M241.51 865.88l-.1-3.82a8.15 8.15 0 0 0-4.34-7.12h-.24a8.15 8.15 0 0 0-4.34 7.12l-.1 3.82zm-9.17-3.85h8.9m-27.88-343.14l-2.41 4.83v3.76l-2.95 2.95v14.89h11.4v-14.86l-2.62-2.78v-3.69l1.75-5.03-5.17-.07zm-2.03 7.34l5.04.35m-7.95 14.15l4.33 4.33m-4.33-9.97l9.5 9.5m-8.51-14.16l9.5 9.5m-7.3-12.94l7.17 7.17m.13 6.57l-4.33 4.33m4.33-9.97l-9.5 9.5m8.51-14.16l-9.5 9.5m7.3-12.94l-7.17 7.17m36.58 11.67v214.39"/><path class="cls-2" d="M245.13 527.83v-9.57s1-9.47-6.29-22.66-11.37-11.93-11.37-11.93-4.13-1.25-11.37 11.93-6.29 22.66-6.29 22.66v9.57"/><path class="cls-2" d="M241.59 518.89l2.42 4.83v3.76l2.95 2.95v14.89h-11.4v-14.86l2.61-2.78v-3.69l-1.74-5.03 5.16-.07zm2.04 7.34l-5.04.35m7.94 14.15l-4.33 4.33m4.33-9.97l-9.5 9.5m8.51-14.16l-9.5 9.5m7.31-12.94l-7.18 7.17m-.13 6.57l4.33 4.33m-4.33-9.97l9.5 9.5m-8.51-14.16l9.5 9.5m-7.3-12.94l7.17 7.17m56.63 11.67V764.7m3.55-245.81l-2.42 4.83v3.76l-2.95 2.95v14.89h11.4v-14.86l-2.61-2.78v-3.69l1.74-5.03-5.16-.07zm-2.04 7.34l5.04.35m-7.95 14.15l4.33 4.33m-4.33-9.97l9.5 9.5m-8.51-14.16l9.5 9.5m-7.3-12.94l7.17 7.17m.13 6.57l-4.33 4.33m4.33-9.97l-9.5 9.5m8.51-14.16l-9.5 9.5m7.31-12.94l-7.18 7.17m36.59 11.67v214.39"/><path class="cls-2" d="M338.35 527.83v-9.57s.94-9.47-6.29-22.66-11.38-11.93-11.38-11.93-4.14-1.25-11.38 11.93-6.3 22.66-6.3 22.66v9.57"/><path class="cls-2" d="M334.8 518.89l2.42 4.83v3.76l2.95 2.95v14.89h-11.4v-14.86l2.61-2.78v-3.69l-1.74-5.03 5.16-.07zm2.04 7.34l-5.04.35m7.95 14.15l-4.33 4.33m4.33-9.97l-9.5 9.5m8.5-14.16l-9.49 9.5m7.3-12.94l-7.17 7.17m-.13 6.57l4.33 4.33m-4.33-9.97l9.49 9.5m-8.5-14.16l9.5 9.5m-7.31-12.94l7.18 7.17"/><path class="cls-3" d="M321.17 834.69s1.9-1.12 2.76-8.87 6.8-60.74 6.8-60.74.18-13.19 2.76-13.19 5.17 10.52 5.26 12.5 2.15 82.71 2.15 82.71l-2.24 1.38v5.08l-1.28 1.28h-33.13l-1.25-1.28v-5.08l-2.24-1.38s2.06-80.73 2.15-82.71 2.67-12.5 5.26-12.5 2.75 13.19 2.75 13.19 6 53 6.81 60.74 2.76 8.87 2.76 8.87z"/><path class="cls-4" d="M341 857.5s-2-26.4-6.85-26.4a8.74 8.74 0 0 0-7 3 117.2 117.2 0 0 0-2.64 11.49 3.74 3.74 0 0 1-7.42 0c-.64-4.37-2.65-11.49-2.65-11.49a8.71 8.71 0 0 0-7-3c-4.83 0-7.24 25.59-7.24 25.59"/><path class="cls-2" d="M316.34 865.88l-.11-3.82a8.15 8.15 0 0 0-4.33-7.12h-.25a8.15 8.15 0 0 0-4.33 7.12l-.11 3.82zm-9.18-3.85h8.91"/><path class="cls-2" d="M325.36 865.88l-.1-3.82a8.15 8.15 0 0 0-4.34-7.12h-.24a8.15 8.15 0 0 0-4.34 7.12l-.1 3.82zm-9.17-3.85h8.9"/><path class="cls-2" d="M334.41 865.88l-.1-3.82a8.15 8.15 0 0 0-4.34-7.12h-.25a8.15 8.15 0 0 0-4.33 7.12l-.1 3.82zm-9.18-3.85h8.91"/><path d="M291.59 761.2v-378c8.33-5.57 7.89-12 7.89-12l-.12-67.95s.52-15.22-9.53-31.53-15.57-14.48-15.57-14.48h-.17s-5.51-1.84-15.56 14.48-9.53 31.5-9.53 31.5l-.11 67.95s-.45 6.44 7.88 12v378" fill="#fff" stroke-linecap="round" stroke-linejoin="round" stroke-width="2.41" stroke="#180041"/><path class="cls-2" d="M256.57 383h35.27m-32.1 135.89l-2.41 4.83v3.76l-2.95 2.95v14.89h11.4v-14.86l-2.62-2.78v-3.69l1.74-5.03-5.16-.07zm-2.03 7.34l5.04.35m-7.95 14.15l4.33 4.33m-4.33-9.97l9.5 9.5m-8.51-14.16l9.5 9.5m-7.3-12.94l7.17 7.17m.13 6.57l-4.33 4.33m4.33-9.97l-9.5 9.5m8.51-14.16l-9.5 9.5m7.3-12.94l-7.17 7.17m33.04-15.27l2.41 4.83v3.76l2.95 2.95v14.89h-11.4v-14.86l2.62-2.78v-3.69l-1.74-5.03 5.16-.07zm2.03 7.34l-5.04.35m7.95 14.15l-4.33 4.33m4.33-9.97l-9.5 9.5m8.51-14.16l-9.5 9.5m7.3-12.94l-7.17 7.17m-.13 6.57l4.33 4.33m-4.33-9.97l9.5 9.5m-8.51-14.16l9.5 9.5m-7.3-12.94l7.17 7.17m-19.41-151.5v62.89s-2.76 3.79-2.76 6.54 1 14.48 2.93 16.37 4-16.8 4-16.8-.34-4.56-4.18-6.11"/><path class="cls-3" d="M274.34 834.69s1.89-1.12 2.75-8.87l6.81-60.74s.17-13.19 2.76-13.19 5.17 10.52 5.25 12.5 2.16 82.71 2.16 82.71l-2.24 1.38v5.08l-1.28 1.28h-33.13l-1.28-1.28v-5.08l-2.24-1.38s2.07-80.73 2.16-82.71 2.67-12.5 5.25-12.5 2.76 13.19 2.76 13.19 5.95 53 6.81 60.74 2.75 8.87 2.75 8.87z"/><path class="cls-4" d="M294.2 857.5s-2-26.4-6.85-26.4a8.72 8.72 0 0 0-7 3 117.2 117.2 0 0 0-2.64 11.49 3.75 3.75 0 0 1-7.43 0 117.2 117.2 0 0 0-2.64-11.49 8.72 8.72 0 0 0-7-3c-4.82 0-7.24 25.59-7.24 25.59"/><path class="cls-2" d="M269.5 865.88l-.1-3.82a8.15 8.15 0 0 0-4.33-7.12h-.25a8.15 8.15 0 0 0-4.34 7.12l-.1 3.82zm-9.17-3.85h8.9"/><path class="cls-2" d="M278.53 865.88l-.1-3.82a8.15 8.15 0 0 0-4.34-7.12h-.24a8.15 8.15 0 0 0-4.34 7.12l-.1 3.82zm-9.18-3.85h8.91"/><path class="cls-2" d="M287.58 865.88l-.11-3.82a8.15 8.15 0 0 0-4.33-7.12h-.25a8.15 8.15 0 0 0-4.33 7.12l-.11 3.82zm-9.18-3.85h8.91M218.5 518.79h115.9"/><ellipse class="cls-2" cx="264.57" cy="304.66" rx="2.99" ry="2.18"/><ellipse class="cls-2" cx="264.57" cy="345.44" rx="2.99" ry="2.18"/><path class="cls-2" d="M144.03 557.33l3.2-5.84 3.19 5.84 5.84 3.2-5.84 3.19-3.19 5.84-3.2-5.84-5.84-3.19 5.84-3.2z"/><path class="cls-6" d="M83.65 372.62l3.19-5.85 3.2 5.85 5.84 3.19-5.84 3.2-3.2 5.84-3.19-5.84-5.84-3.2 5.84-3.19z"/><path class="cls-2" d="M414.21 216.72l3.2-5.84 3.19 5.84 5.85 3.2-5.85 3.19-3.19 5.85-3.2-5.85-5.84-3.19 5.84-3.2z"/><path stroke-linecap="round" stroke-linejoin="round" stroke-width="2.41" stroke="#180041" fill="#ffd107" d="M149.37 193.34l3.2-5.84 3.19 5.84 5.85 3.2-5.85 3.19-3.19 5.84-3.2-5.84-5.84-3.19 5.84-3.2z"/><circle class="cls-1" cx="166.04" cy="533.01" r="2.92"/><circle class="cls-8" cx="343.37" cy="330.34" r="2.92"/><circle class="cls-1" cx="171.71" cy="226.26" r="2.92"/><circle class="cls-2" cx="157.04" cy="292.76" r="2.92"/><circle class="cls-2" cx="124.54" cy="389.01" r="2.92"/><path class="cls-6" d="M438.04 582.01l3.2-5.85 3.19 5.85 5.84 3.19-5.84 3.2-3.19 5.84-3.2-5.84-5.84-3.2 5.84-3.19z"/><circle cx="501.43" cy="451.15" r="2.92" fill="#00ed92" stroke="#fff" stroke-linecap="round" stroke-linejoin="round" stroke-width="2.41"/><circle class="cls-2" cx="467.93" cy="618.4" r="2.92"/><circle class="cls-2" cx="417.59" cy="303.29" r="2.92"/><circle class="cls-2" cx="163.04" cy="602.93" r="2.92"/><circle class="cls-1" cx="439.72" cy="249.18" r="2.92"/><circle class="cls-1" cx="430.18" cy="425.44" r="2.92"/><path class="cls-10" d="M387.35 88.84a27.11 27.11 0 1 1 31.87 21.3 27.14 27.14 0 0 1-31.87-21.3zm50.51-10a24.39 24.39 0 1 0-19.17 28.68 24.42 24.42 0 0 0 19.17-28.72z"/><path class="cls-10" d="M423 59.64a1.33 1.33 0 0 1 .14-.91L429 48a1.32 1.32 0 0 1 .81-.65 1.37 1.37 0 0 1 1 .11L438 51.4a1.32 1.32 0 0 1 .65.81 1.29 1.29 0 0 1-.11 1L435.91 58a1.37 1.37 0 0 1-1.85.54l-5.94-3.25-2.6 4.71a1.36 1.36 0 0 1-2.52-.39zm7.72-9.12l-1.3 2.38 4.75 2.6 1.31-2.38zM407.84 66.8a4.07 4.07 0 1 1 4.78 3.2 4.07 4.07 0 0 1-4.78-3.2zm5.32-1.06a1.36 1.36 0 1 0-1.07 1.6 1.36 1.36 0 0 0 1.07-1.6zm5.57 7.19a5.42 5.42 0 1 1 6.38 4.26 5.44 5.44 0 0 1-6.38-4.26zm8-1.59a2.71 2.71 0 1 0-2.13 3.19 2.72 2.72 0 0 0 2.11-3.19zM394 80.6a9.49 9.49 0 1 1 11.16 7.46A9.5 9.5 0 0 1 394 80.6zm16-3.17a6.78 6.78 0 1 0-5.32 8 6.77 6.77 0 0 0 5.32-8z"/><path class="cls-8" transform="rotate(-61.27 432.431 53.038)" d="M431.1 50.32h2.71v5.42h-2.71z"/><path class="cls-6" d="M115.58 868h315.5v16h-315.5z"/><path class="cls-10" d="M115.58 876.37h315.5V884h-315.5z"/><path class="cls-2" d="M96.5 884h353.66"/></svg>

<svg id="Layer_2" data-name="Layer 2" xmlns="http://www.w3.org/2000/svg" viewBox="0 0 562.04 940.49"><defs><style>.cls-1{fill:#ffd107}.cls-2,.cls-4{fill:none}.cls-2,.cls-3,.cls-6{stroke:#180041}.cls-2,.cls-3,.cls-4,.cls-6{stroke-linecap:round;stroke-linejoin:round;stroke-width:2.41px}.cls-10,.cls-3{fill:#180041}.cls-4{stroke:#fff}.cls-6,.cls-8{fill:#00ed92}</style></defs><circle class="cls-1" cx="413.93" cy="83.55" r="24.4"/><path class="cls-2" d="M209.82 545.83V764.7"/><path class="cls-3" d="M228.27 834.69s1.9-1.12 2.76-8.87 6.81-60.74 6.81-60.74.17-13.19 2.76-13.19 5.17 10.52 5.25 12.5S248 847.1 248 847.1l-2.24 1.38v5.08l-1.28 1.28h-33.12l-1.28-1.28v-5.08l-2.24-1.38s2.07-80.73 2.15-82.71 2.68-12.5 5.26-12.5 2.75 13.19 2.75 13.19 5.94 53 6.8 60.74 2.76 8.87 2.76 8.87z"/><path class="cls-4" d="M248.13 857.5s-2-26.4-6.85-26.4a8.71 8.71 0 0 0-7 3s-2 7.12-2.65 11.49a3.74 3.74 0 0 1-7.42 0 117.2 117.2 0 0 0-2.64-11.49 8.72 8.72 0 0 0-7-3c-4.82 0-7.24 25.59-7.24 25.59"/><path class="cls-2" d="M223.44 865.88l-.1-3.82a8.15 8.15 0 0 0-4.34-7.12h-.24a8.15 8.15 0 0 0-4.34 7.12l-.1 3.82zM214.27 862.03h8.9"/><path class="cls-2" d="M232.47 865.88l-.11-3.82a8.15 8.15 0 0 0-4.33-7.12h-.25a8.15 8.15 0 0 0-4.33 7.12l-.11 3.82zM223.29 862.03h8.91"/><path class="cls-2" d="M241.51 865.88l-.1-3.82a8.15 8.15 0 0 0-4.34-7.12h-.24a8.15 8.15 0 0 0-4.34 7.12l-.1 3.82zM232.34 862.03h8.9M213.36 518.89l-2.41 4.83v3.76l-2.95 2.95v14.89h11.4v-14.86l-2.62-2.78v-3.69l1.75-5.03-5.17-.07zM211.33 526.23l5.04.35M208.42 540.73l4.33 4.33M208.42 535.09l9.5 9.5M209.41 530.43l9.5 9.5M211.61 526.99l7.17 7.17M218.91 540.73l-4.33 4.33M218.91 535.09l-9.5 9.5M217.92 530.43l-9.5 9.5M215.72 526.99l-7.17 7.17M245.13 545.83v214.39"/><path class="cls-2" d="M245.13 527.83v-9.57s1-9.47-6.29-22.66-11.37-11.93-11.37-11.93-4.13-1.25-11.37 11.93-6.29 22.66-6.29 22.66v9.57"/><path class="cls-2" d="M241.59 518.89l2.42 4.83v3.76l2.95 2.95v14.89h-11.4v-14.86l2.61-2.78v-3.69l-1.74-5.03 5.16-.07zM243.63 526.23l-5.04.35M246.53 540.73l-4.33 4.33M246.53 535.09l-9.5 9.5M245.54 530.43l-9.5 9.5M243.35 526.99l-7.18 7.17M236.04 540.73l4.33 4.33M236.04 535.09l9.5 9.5M237.03 530.43l9.5 9.5M239.23 526.99l7.17 7.17M303.03 545.83V764.7M306.58 518.89l-2.42 4.83v3.76l-2.95 2.95v14.89h11.4v-14.86l-2.61-2.78v-3.69l1.74-5.03-5.16-.07zM304.54 526.23l5.04.35M301.63 540.73l4.33 4.33M301.63 535.09l9.5 9.5M302.62 530.43l9.5 9.5M304.82 526.99l7.17 7.17M312.12 540.73l-4.33 4.33M312.12 535.09l-9.5 9.5M311.13 530.43l-9.5 9.5M308.94 526.99l-7.18 7.17M338.35 545.83v214.39"/><path class="cls-2" d="M338.35 527.83v-9.57s.94-9.47-6.29-22.66-11.38-11.93-11.38-11.93-4.14-1.25-11.38 11.93-6.3 22.66-6.3 22.66v9.57"/><path class="cls-2" d="M334.8 518.89l2.42 4.83v3.76l2.95 2.95v14.89h-11.4v-14.86l2.61-2.78v-3.69l-1.74-5.03 5.16-.07zM336.84 526.23l-5.04.35M339.75 540.73l-4.33 4.33M339.75 535.09l-9.5 9.5M338.75 530.43l-9.49 9.5M336.56 526.99l-7.17 7.17M329.26 540.73l4.33 4.33M329.26 535.09l9.49 9.5M330.25 530.43l9.5 9.5M332.44 526.99l7.18 7.17"/><path class="cls-3" d="M321.17 834.69s1.9-1.12 2.76-8.87 6.8-60.74 6.8-60.74.18-13.19 2.76-13.19 5.17 10.52 5.26 12.5 2.15 82.71 2.15 82.71l-2.24 1.38v5.08l-1.28 1.28h-33.13l-1.25-1.28v-5.08l-2.24-1.38s2.06-80.73 2.15-82.71 2.67-12.5 5.26-12.5 2.75 13.19 2.75 13.19 6 53 6.81 60.74 2.76 8.87 2.76 8.87z"/><path class="cls-4" d="M341 857.5s-2-26.4-6.85-26.4a8.74 8.74 0 0 0-7 3 117.2 117.2 0 0 0-2.64 11.49 3.74 3.74 0 0 1-7.42 0c-.64-4.37-2.65-11.49-2.65-11.49a8.71 8.71 0 0 0-7-3c-4.83 0-7.24 25.59-7.24 25.59"/><path class="cls-2" d="M316.34 865.88l-.11-3.82a8.15 8.15 0 0 0-4.33-7.12h-.25a8.15 8.15 0 0 0-4.33 7.12l-.11 3.82zM307.16 862.03h8.91"/><path class="cls-2" d="M325.36 865.88l-.1-3.82a8.15 8.15 0 0 0-4.34-7.12h-.24a8.15 8.15 0 0 0-4.34 7.12l-.1 3.82zM316.19 862.03h8.9"/><path class="cls-2" d="M334.41 865.88l-.1-3.82a8.15 8.15 0 0 0-4.34-7.12h-.25a8.15 8.15 0 0 0-4.33 7.12l-.1 3.82zM325.23 862.03h8.91"/><path d="M291.59 761.2v-378c8.33-5.57 7.89-12 7.89-12l-.12-67.95s.52-15.22-9.53-31.53-15.57-14.48-15.57-14.48h-.17s-5.51-1.84-15.56 14.48-9.53 31.5-9.53 31.5l-.11 67.95s-.45 6.44 7.88 12v378" fill="#fff" stroke-linecap="round" stroke-linejoin="round" stroke-width="2.41" stroke="#180041"/><path class="cls-2" d="M256.57 383h35.27M259.74 518.89l-2.41 4.83v3.76l-2.95 2.95v14.89h11.4v-14.86l-2.62-2.78v-3.69l1.74-5.03-5.16-.07zM257.71 526.23l5.04.35M254.8 540.73l4.33 4.33M254.8 535.09l9.5 9.5M255.79 530.43l9.5 9.5M257.99 526.99l7.17 7.17M265.29 540.73l-4.33 4.33M265.29 535.09l-9.5 9.5M264.3 530.43l-9.5 9.5M262.1 526.99l-7.17 7.17M287.97 518.89l2.41 4.83v3.76l2.95 2.95v14.89h-11.4v-14.86l2.62-2.78v-3.69l-1.74-5.03 5.16-.07zM290 526.23l-5.04.35M292.91 540.73l-4.33 4.33M292.91 535.09l-9.5 9.5M291.92 530.43l-9.5 9.5M289.72 526.99l-7.17 7.17M282.42 540.73l4.33 4.33M282.42 535.09l9.5 9.5M283.41 530.43l9.5 9.5M285.61 526.99l7.17 7.17M273.37 382.66v62.89s-2.76 3.79-2.76 6.54 1 14.48 2.93 16.37 4-16.8 4-16.8-.34-4.56-4.18-6.11"/><path class="cls-3" d="M274.34 834.69s1.89-1.12 2.75-8.87l6.81-60.74s.17-13.19 2.76-13.19 5.17 10.52 5.25 12.5 2.16 82.71 2.16 82.71l-2.24 1.38v5.08l-1.28 1.28h-33.13l-1.28-1.28v-5.08l-2.24-1.38s2.07-80.73 2.16-82.71 2.67-12.5 5.25-12.5 2.76 13.19 2.76 13.19 5.95 53 6.81 60.74 2.75 8.87 2.75 8.87z"/><path class="cls-4" d="M294.2 857.5s-2-26.4-6.85-26.4a8.72 8.72 0 0 0-7 3 117.2 117.2 0 0 0-2.64 11.49 3.75 3.75 0 0 1-7.43 0 117.2 117.2 0 0 0-2.64-11.49 8.72 8.72 0 0 0-7-3c-4.82 0-7.24 25.59-7.24 25.59"/><path class="cls-2" d="M269.5 865.88l-.1-3.82a8.15 8.15 0 0 0-4.33-7.12h-.25a8.15 8.15 0 0 0-4.34 7.12l-.1 3.82zM260.33 862.03h8.9"/><path class="cls-2" d="M278.53 865.88l-.1-3.82a8.15 8.15 0 0 0-4.34-7.12h-.24a8.15 8.15 0 0 0-4.34 7.12l-.1 3.82zM269.35 862.03h8.91"/><path class="cls-2" d="M287.58 865.88l-.11-3.82a8.15 8.15 0 0 0-4.33-7.12h-.25a8.15 8.15 0 0 0-4.33 7.12l-.11 3.82zM278.4 862.03h8.91M218.5 518.79h115.9"/><ellipse class="cls-2" cx="264.57" cy="304.66" rx="2.99" ry="2.18"/><ellipse class="cls-2" cx="264.57" cy="345.44" rx="2.99" ry="2.18"/><path class="cls-2" d="M144.03 557.33l3.2-5.84 3.19 5.84 5.84 3.2-5.84 3.19-3.19 5.84-3.2-5.84-5.84-3.19 5.84-3.2z"/><path class="cls-6" d="M83.65 372.62l3.19-5.85 3.2 5.85 5.84 3.19-5.84 3.2-3.2 5.84-3.19-5.84-5.84-3.2 5.84-3.19z"/><path class="cls-2" d="M414.21 216.72l3.2-5.84 3.19 5.84 5.85 3.2-5.85 3.19-3.19 5.85-3.2-5.85-5.84-3.19 5.84-3.2z"/><path stroke-linecap="round" stroke-linejoin="round" stroke-width="2.41" stroke="#180041" fill="#ffd107" d="M149.37 193.34l3.2-5.84 3.19 5.84 5.85 3.2-5.85 3.19-3.19 5.84-3.2-5.84-5.84-3.19 5.84-3.2z"/><circle class="cls-1" cx="166.04" cy="533.01" r="2.92"/><circle class="cls-8" cx="343.37" cy="330.34" r="2.92"/><circle class="cls-1" cx="171.71" cy="226.26" r="2.92"/><circle class="cls-2" cx="157.04" cy="292.76" r="2.92"/><circle class="cls-2" cx="124.54" cy="389.01" r="2.92"/><path class="cls-6" d="M438.04 582.01l3.2-5.85 3.19 5.85 5.84 3.19-5.84 3.2-3.19 5.84-3.2-5.84-5.84-3.2 5.84-3.19z"/><circle cx="501.43" cy="451.15" r="2.92" fill="#00ed92" stroke="#fff" stroke-linecap="round" stroke-linejoin="round" stroke-width="2.41"/><circle class="cls-2" cx="467.93" cy="618.4" r="2.92"/><circle class="cls-2" cx="417.59" cy="303.29" r="2.92"/><circle class="cls-2" cx="163.04" cy="602.93" r="2.92"/><circle class="cls-1" cx="439.72" cy="249.18" r="2.92"/><circle class="cls-1" cx="430.18" cy="425.44" r="2.92"/><path class="cls-10" d="M387.35 88.84a27.11 27.11 0 1 1 31.87 21.3 27.14 27.14 0 0 1-31.87-21.3zm50.51-10a24.39 24.39 0 1 0-19.17 28.68 24.42 24.42 0 0 0 19.17-28.72z"/><path class="cls-10" d="M423 59.64a1.33 1.33 0 0 1 .14-.91L429 48a1.32 1.32 0 0 1 .81-.65 1.37 1.37 0 0 1 1 .11L438 51.4a1.32 1.32 0 0 1 .65.81 1.29 1.29 0 0 1-.11 1L435.91 58a1.37 1.37 0 0 1-1.85.54l-5.94-3.25-2.6 4.71a1.36 1.36 0 0 1-2.52-.39zm7.72-9.12l-1.3 2.38 4.75 2.6 1.31-2.38zM407.84 66.8a4.07 4.07 0 1 1 4.78 3.2 4.07 4.07 0 0 1-4.78-3.2zm5.32-1.06a1.36 1.36 0 1 0-1.07 1.6 1.36 1.36 0 0 0 1.07-1.6zM418.73 72.93a5.42 5.42 0 1 1 6.38 4.26 5.44 5.44 0 0 1-6.38-4.26zm8-1.59a2.71 2.71 0 1 0-2.13 3.19 2.72 2.72 0 0 0 2.11-3.19zM394 80.6a9.49 9.49 0 1 1 11.16 7.46A9.5 9.5 0 0 1 394 80.6zm16-3.17a6.78 6.78 0 1 0-5.32 8 6.77 6.77 0 0 0 5.32-8z"/><path class="cls-8" transform="rotate(-61.27 432.431 53.038)" d="M431.1 50.32h2.71v5.42h-2.71z"/><path class="cls-6" d="M115.58 868h315.5v16h-315.5z"/><path class="cls-10" d="M115.58 876.37h315.5V884h-315.5z"/><path class="cls-2" d="M96.5 884h353.66"/></svg>
